svg/emoji_u1f9f3.svg

<svg width="128" height="128" viewBox="0 0 128 128" fill="none" xmlns="http://www.w3.org/2000/svg">
<path d="M58.4999 124C61.8468 124 64.5599 121.287 64.5599 117.94C64.5599 114.594 61.8468 111.88 58.4999 111.88C55.1531 111.88 52.4399 114.594 52.4399 117.94C52.4399 121.287 55.1531 124 58.4999 124Z" fill="#616161" style="fill:#616161;fill:color(display-p3 0.3804 0.3804 0.3804);fill-opacity:1;"/>
<path d="M58.4999 120.5C59.9138 120.5 61.0599 119.354 61.0599 117.94C61.0599 116.527 59.9138 115.38 58.4999 115.38C57.0861 115.38 55.9399 116.527 55.9399 117.94C55.9399 119.354 57.0861 120.5 58.4999 120.5Z" fill="#9E9E9E" style="fill:#9E9E9E;fill:color(display-p3 0.6196 0.6196 0.6196);fill-opacity:1;"/>
<path d="M44.18 115.27L43.02 114.56C41.54 113.65 41.08 111.72 41.99 110.24L44.61 105.98C45.52 104.5 47.45 104.04 48.93 104.95L50.09 105.66C51.57 106.57 52.03 108.5 51.12 109.98L48.5 114.24C47.59 115.72 45.65 116.18 44.18 115.27Z" fill="#616161" style="fill:#616161;fill:color(display-p3 0.3804 0.3804 0.3804);fill-opacity:1;"/>
<path d="M28.7499 105.7C32.0968 105.7 34.8099 102.987 34.8099 99.6401C34.8099 96.2932 32.0968 93.5801 28.7499 93.5801C25.4031 93.5801 22.6899 96.2932 22.6899 99.6401C22.6899 102.987 25.4031 105.7 28.7499 105.7Z" fill="#616161" style="fill:#616161;fill:color(display-p3 0.3804 0.3804 0.3804);fill-opacity:1;"/>
<path d="M28.7499 102.2C30.1638 102.2 31.3099 101.054 31.3099 99.6401C31.3099 98.2262 30.1638 97.0801 28.7499 97.0801C27.3361 97.0801 26.1899 98.2262 26.1899 99.6401C26.1899 101.054 27.3361 102.2 28.7499 102.2Z" fill="#9E9E9E" style="fill:#9E9E9E;fill:color(display-p3 0.6196 0.6196 0.6196);fill-opacity:1;"/>
<path d="M14.42 96.9702L13.26 96.2602C11.78 95.3502 11.32 93.4202 12.23 91.9402L14.85 87.6802C15.76 86.2002 17.69 85.7402 19.17 86.6502L20.33 87.3602C21.81 88.2702 22.27 90.2002 21.36 91.6802L18.74 95.9402C17.83 97.4102 15.9 97.8702 14.42 96.9702Z" fill="#616161" style="fill:#616161;fill:color(display-p3 0.3804 0.3804 0.3804);fill-opacity:1;"/>
<path d="M85.8901 13.5603L75.2101 30.9803L71.8601 28.8603L82.6301 11.3003L85.8901 13.5603Z" fill="#BDBDBD" stroke="url(#paint0_linear_2471_1005)" style="fill:#BDBDBD;fill:color(display-p3 0.7412 0.7412 0.7412);fill-opacity:1;" stroke-width="1.0225" stroke-miterlimit="10"/>
<path d="M102.87 23.34L91.8102 41.38L88.4302 39.31L99.4802 21.27L102.87 23.34Z" fill="#BDBDBD" stroke="url(#paint1_linear_2471_1005)" style="fill:#BDBDBD;fill:color(display-p3 0.7412 0.7412 0.7412);fill-opacity:1;" stroke-width="1.0225" stroke-miterlimit="10"/>
<path d="M84.2501 6.02013L81.1801 11.0301C80.8901 11.5001 80.9201 12.0501 81.3701 12.3201C81.3701 12.3201 82.1901 11.8501 83.8001 12.8901C85.4101 13.9301 85.5501 14.9101 85.5501 14.9101C86.0001 15.1801 86.4301 14.8301 86.7201 14.3601L87.9101 12.4101C88.7001 11.1201 90.0701 10.5701 91.3001 11.3201L98.6301 15.8101C99.8601 16.5601 100.21 18.2201 99.4201 19.5101L98.9101 20.3601C98.5701 20.9201 98.0001 21.5701 98.5301 21.9001C98.5301 21.9001 99.3301 21.7001 100.97 22.7701C102.61 23.8501 102.73 24.4801 102.73 24.4801C103.26 24.8101 103.79 24.4901 104.13 23.9301L106.68 19.7601C107.32 18.7201 107.79 16.6701 106.29 14.4501C105.08 12.6601 103.99 11.5701 98.3801 8.13013C92.7301 4.67013 91.6201 4.49013 89.5301 4.06013C87.1801 3.65013 84.8801 4.99013 84.2501 6.02013Z" fill="#616161" style="fill:#616161;fill:color(display-p3 0.3804 0.3804 0.3804);fill-opacity:1;"/>
<path opacity="0.65" d="M90.2301 7.69024C89.0701 7.44024 87.8601 7.45024 86.7201 7.76024C86.5801 7.80024 86.4401 7.84024 86.3001 7.81024C86.0401 7.76024 85.8801 7.48024 85.8901 7.21024C85.9001 6.95024 86.0401 6.71024 86.2001 6.49024C87.8401 4.31024 91.0201 5.18024 93.1501 6.36024C93.8701 6.76024 95.8001 7.93024 94.6801 8.95024C94.3801 9.23024 93.9101 9.25024 93.5201 9.13024C93.1301 9.01024 92.7901 8.76024 92.4401 8.55024C91.7601 8.15024 91.0101 7.86024 90.2301 7.69024Z" fill="#BDBDBD" style="fill:#BDBDBD;fill:color(display-p3 0.7412 0.7412 0.7412);fill-opacity:1;"/>
<path d="M107.11 57.8601C109.16 54.5301 108.11 50.1601 104.78 48.1201L90.1102 39.1001L49.4302 105.23L64.1402 114.28C67.4702 116.33 71.8402 115.28 73.8802 111.95L107.11 57.8601Z" fill="#A06841" style="fill:#A06841;fill:color(display-p3 0.6275 0.4078 0.2549);fill-opacity:1;"/>
<path d="M19.0901 86.6401L49.7501 105.5C53.0801 107.55 57.4501 106.5 59.4901 103.17L92.7501 49.0301C94.8001 45.7001 93.7501 41.3301 90.4201 39.2901L59.7601 20.4401C56.4301 18.3901 52.0601 19.4401 50.0201 22.7701L16.7601 76.9001C14.7101 80.2401 15.7501 84.6001 19.0901 86.6401Z" fill="#D98851" style="fill:#D98851;fill:color(display-p3 0.8510 0.5333 0.3176);fill-opacity:1;"/>
<path d="M58.9602 111.09C60.4002 111.06 61.7402 110.68 63.1702 110.24C64.9802 109.68 66.5002 108.78 67.5202 107.13L99.7002 54.73C100.88 52.81 100.88 50.5 100.16 48.42C99.8002 47.37 99.3602 46.21 98.5202 45.09C97.8202 44.16 96.5702 43.05 96.5102 43.02C97.2902 43.02 98.4502 43.74 100.05 45.24C102.98 47.98 103.43 52.41 101.38 55.75C101.38 55.76 69.2002 108.15 69.2002 108.15C68.0402 110.05 66.1702 111.45 64.0302 112.05C63.0602 112.32 61.8602 112.43 60.8302 112.32C59.2902 112.16 58.9602 111.09 58.9602 111.09Z" fill="#212121" style="fill:#212121;fill:color(display-p3 0.1294 0.1294 0.1294);fill-opacity:1;"/>
<path d="M48.0063 66.4708C50.6459 65.7811 51.8825 61.7653 50.7684 57.5013C49.6542 53.2373 46.6112 50.3398 43.9716 51.0295C41.332 51.7192 40.0953 55.735 41.2095 59.999C42.3236 64.263 45.3667 67.1605 48.0063 66.4708Z" fill="#784D30" style="fill:#784D30;fill:color(display-p3 0.4706 0.3020 0.1882);fill-opacity:1;"/>
<path d="M44.3901 65.92C42.8201 64.74 41.4701 62.65 40.8001 60.1C40.2401 57.96 40.2301 55.81 40.7801 54.05C41.3501 52.21 42.4401 50.99 43.8601 50.62C46.7201 49.87 50.0001 52.91 51.1701 57.39C51.7301 59.53 51.7401 61.68 51.1901 63.44C50.6201 65.28 49.5301 66.5001 48.1101 66.8701C46.8801 67.1901 45.5801 66.82 44.3901 65.92ZM47.1001 52.2201C46.1301 51.4901 45.0701 51.17 44.0801 51.43C42.9501 51.73 42.0601 52.7401 41.5901 54.2901C41.0901 55.9101 41.1001 57.9001 41.6201 59.8801C42.6701 63.9101 45.4901 66.6801 47.9001 66.0501C49.0301 65.7501 49.9201 64.74 50.3901 63.19C50.8901 61.57 50.8801 59.58 50.3601 57.6C49.7401 55.22 48.5001 53.2801 47.1001 52.2201Z" fill="#FFE0B2" style="fill:#FFE0B2;fill:color(display-p3 1.0000 0.8784 0.6980);fill-opacity:1;"/>
<path d="M68.78 46.1803L69.93 55.3403L84.91 51.5403L80.12 48.0303L83.77 42.8203L68.78 46.1803Z" fill="#7CB342" stroke="#F1F8E9" style="fill:#7CB342;fill:color(display-p3 0.4863 0.7020 0.2588);fill-opacity:1;stroke:#F1F8E9;stroke:color(display-p3 0.9451 0.9725 0.9137);stroke-opacity:1;" stroke-width="0.7531" stroke-miterlimit="10"/>
<path d="M64.5901 44.9399C66.7401 42.8899 66.1301 38.6099 62.6001 39.5299C61.5601 39.7999 60.4301 40.3799 59.4501 39.6599C59.2201 39.4699 59.0701 39.1499 59.1401 38.8499C59.2701 38.2899 60.0001 37.8699 60.4501 37.6499C61.8201 37.0399 62.9701 36.9799 63.3101 35.3699C63.7301 33.4099 60.8001 31.4599 58.9201 31.5699C56.3501 31.7199 56.2401 33.6299 56.5601 35.8799C56.7501 36.9699 55.6001 37.7699 54.8701 36.8399C54.3601 35.8699 54.7901 34.3399 54.3201 33.3299C53.8301 31.6099 51.7001 31.5399 50.3501 32.3499C49.0801 33.1099 47.9401 34.6399 48.3801 36.1399C48.8101 37.5999 49.9001 37.8899 51.0801 38.1599C51.6601 38.2899 52.4001 38.5299 52.7101 39.1199C53.1901 40.4599 50.8401 39.8299 50.1301 39.9299C49.3801 39.9299 48.6701 40.0099 48.0801 40.4899C46.4601 41.7099 46.7001 44.6699 48.7401 45.6399C50.5601 46.7799 52.2701 45.3999 53.2501 43.7099C53.5101 43.3199 53.8201 42.8799 54.2801 42.8299C55.1401 42.7399 55.1501 43.8299 55.0101 44.3899C54.7901 45.2999 54.3001 46.1299 54.0801 47.0399C53.3601 50.1299 57.8401 51.2899 59.6301 48.8999C60.7201 47.4199 59.9801 45.7699 58.6201 44.5399C58.2801 44.2299 57.9801 43.6199 58.3401 43.2099C59.0601 42.4499 60.3501 43.7199 60.7501 44.0499C61.9501 45.0499 63.0901 46.0999 64.5901 44.9399Z" fill="#FFE36C" style="fill:#FFE36C;fill:color(display-p3 1.0000 0.8902 0.4235);fill-opacity:1;"/>
<path d="M56.0001 42.1002C57.0715 42.1002 57.9401 41.2316 57.9401 40.1602C57.9401 39.0888 57.0715 38.2202 56.0001 38.2202C54.9286 38.2202 54.0601 39.0888 54.0601 40.1602C54.0601 41.2316 54.9286 42.1002 56.0001 42.1002Z" fill="#FF7555" style="fill:#FF7555;fill:color(display-p3 1.0000 0.4588 0.3333);fill-opacity:1;"/>
<path d="M54.9202 108.65L50.4302 105.93L54.8002 98.79L62.4702 103.44C63.1302 103.84 63.3302 104.7 62.9302 105.35C62.9402 105.36 59.7902 111.65 54.9202 108.65Z" fill="#424242" style="fill:#424242;fill:color(display-p3 0.2588 0.2588 0.2588);fill-opacity:1;"/>
<path d="M50.7501 96.3003C50.0901 95.9003 49.2401 96.1103 48.8301 96.7603L47.3201 99.2303C46.1501 101.14 46.7501 103.64 48.6401 104.82L49.7501 105.5C52.7701 107.36 57.3401 107.4 60.0001 102.57C60.1501 102.3 60.0501 101.96 59.7901 101.81L50.7501 96.3003Z" fill="#757575" style="fill:#757575;fill:color(display-p3 0.4588 0.4588 0.4588);fill-opacity:1;"/>
<path d="M73.1101 110.06C72.0701 109.43 71.1001 109.67 70.2701 110.79C68.0501 113.78 65.7401 114.33 64.1501 114.29L64.7301 114.64C68.2601 116.89 72.3801 115.43 74.4901 111.14C74.5401 111.04 74.5001 110.92 74.4101 110.86L73.1101 110.06Z" fill="#424242" style="fill:#424242;fill:color(display-p3 0.2588 0.2588 0.2588);fill-opacity:1;"/>
<path d="M26.9001 81.7602C27.5601 82.1602 27.7601 83.0202 27.3601 83.6702L25.8501 86.1402C24.6801 88.0502 22.2001 88.6702 20.2701 87.5302L19.1601 86.8602C16.1001 85.0102 14.0201 80.6402 17.0901 76.2202C17.2101 76.0502 17.4501 76.0002 17.6201 76.1102L26.9001 81.7602Z" fill="#757575" style="fill:#757575;fill:color(display-p3 0.4588 0.4588 0.4588);fill-opacity:1;"/>
<path d="M47.9501 64.0502C48.3101 63.0102 47.2601 62.5302 46.9101 61.8302C46.9701 60.7802 47.8701 59.7702 47.1601 58.6902C49.5401 56.8002 47.4901 55.9902 45.4001 55.8902C45.5201 55.5502 45.9901 55.4002 46.1901 55.0502C46.5301 54.5502 46.5001 53.8602 46.1001 53.4002C45.6801 52.7502 43.6301 52.6802 44.1801 53.8002C44.6401 54.3202 44.9701 53.3202 45.4601 53.5702C46.1301 54.0202 45.2001 54.6602 44.8801 55.0102C44.4901 55.3802 44.3601 55.8802 44.5501 56.2802C44.9701 57.1702 46.1901 56.7702 46.9401 56.8902C47.7701 57.0802 47.0801 57.8602 46.6401 58.0702C46.5301 58.1402 46.0701 57.8902 45.9201 57.8802C41.6501 56.9402 43.1801 62.4002 46.2601 59.4002C47.1701 60.0502 45.6901 61.0702 45.8701 61.8702C46.0601 62.8602 47.5501 63.4802 46.8201 64.6802C46.7901 64.7202 46.7601 64.7702 46.7901 64.8202C47.1901 65.0302 47.7901 64.4402 47.9501 64.0502ZM45.1101 59.4102C44.8301 59.6402 44.2501 59.6402 44.1901 59.2102C44.2801 58.5902 45.2501 58.6002 45.6501 58.9002C45.4901 59.0802 45.3001 59.2602 45.1101 59.4102Z" fill="#FFE0B2" style="fill:#FFE0B2;fill:color(display-p3 1.0000 0.8784 0.6980);fill-opacity:1;"/>
<defs>
<linearGradient id="paint0_linear_2471_1005" x1="76.7983" y1="19.823" x2="81.0513" y2="22.4294" gradientUnits="userSpaceOnUse">
<stop stop-color="#EEEEEE" style="stop-color:#EEEEEE;stop-color:color(display-p3 0.9333 0.9333 0.9333);stop-opacity:1;"/>
<stop offset="1" stop-color="#757575" style="stop-color:#757575;stop-color:color(display-p3 0.4588 0.4588 0.4588);stop-opacity:1;"/>
</linearGradient>
<linearGradient id="paint1_linear_2471_1005" x1="93.5197" y1="30.0193" x2="97.7726" y2="32.6256" gradientUnits="userSpaceOnUse">
<stop stop-color="#EEEEEE" style="stop-color:#EEEEEE;stop-color:color(display-p3 0.9333 0.9333 0.9333);stop-opacity:1;"/>
<stop offset="1" stop-color="#757575" style="stop-color:#757575;stop-color:color(display-p3 0.4588 0.4588 0.4588);stop-opacity:1;"/>
</linearGradient>
</defs>
</svg>

<?xml version="1.0" encoding="utf-8"?>
<!-- Generator: Adobe Illustrator 25.2.3, SVG Export Plug-In . SVG Version: 6.00 Build 0)  -->
<svg version="1.1" id="Layer_4" xmlns="http://www.w3.org/2000/svg" xmlns:xlink="http://www.w3.org/1999/xlink" x="0px" y="0px"
	 viewBox="0 0 128 128" style="enable-background:new 0 0 128 128;" xml:space="preserve">
<g>
	<g>
		<g>
			<g>
				<circle style="fill:#616161;" cx="58.5" cy="117.94" r="6.06"/>
				<circle style="fill:#9E9E9E;" cx="58.5" cy="117.94" r="2.56"/>
			</g>
			<path style="fill:#616161;" d="M44.18,115.27l-1.16-0.71c-1.48-0.91-1.94-2.84-1.03-4.32l2.62-4.26
				c0.91-1.48,2.84-1.94,4.32-1.03l1.16,0.71c1.48,0.91,1.94,2.84,1.03,4.32l-2.62,4.26C47.59,115.72,45.65,116.18,44.18,115.27z"/>
			<g>
				<circle style="fill:#616161;" cx="28.75" cy="99.64" r="6.06"/>
				<circle style="fill:#9E9E9E;" cx="28.75" cy="99.64" r="2.56"/>
			</g>
			<path style="fill:#616161;" d="M14.42,96.97l-1.16-0.71c-1.48-0.91-1.94-2.84-1.03-4.32l2.62-4.26c0.91-1.48,2.84-1.94,4.32-1.03
				l1.16,0.71c1.48,0.91,1.94,2.84,1.03,4.32l-2.62,4.26C17.83,97.41,15.9,97.87,14.42,96.97z"/>
		</g>
		<g>
			
				<linearGradient id="SVGID_1_" gradientUnits="userSpaceOnUse" x1="55.0859" y1="20.4088" x2="60.0741" y2="20.4088" gradientTransform="matrix(0.8526 0.5225 -0.5225 0.8526 40.4956 -26.3602)">
				<stop  offset="0" style="stop-color:#EEEEEE"/>
				<stop  offset="1" style="stop-color:#757575"/>
			</linearGradient>
			<polygon style="fill:#BDBDBD;stroke:url(#SVGID_1_);stroke-width:1.0225;stroke-miterlimit:10;" points="85.89,13.56 
				75.21,30.98 71.86,28.86 82.63,11.3 			"/>
			
				<linearGradient id="SVGID_2_" gradientUnits="userSpaceOnUse" x1="74.6715" y1="20.3655" x2="79.6596" y2="20.3655" gradientTransform="matrix(0.8526 0.5225 -0.5225 0.8526 40.4956 -26.3602)">
				<stop  offset="0" style="stop-color:#EEEEEE"/>
				<stop  offset="1" style="stop-color:#757575"/>
			</linearGradient>
			<polygon style="fill:#BDBDBD;stroke:url(#SVGID_2_);stroke-width:1.0225;stroke-miterlimit:10;" points="102.87,23.34 
				91.81,41.38 88.43,39.31 99.48,21.27 			"/>
			<path style="fill:#616161;" d="M84.25,6.02l-3.07,5.01c-0.29,0.47-0.26,1.02,0.19,1.29c0,0,0.82-0.47,2.43,0.57
				s1.75,2.02,1.75,2.02c0.45,0.27,0.88-0.08,1.17-0.55l1.19-1.95c0.79-1.29,2.16-1.84,3.39-1.09l7.33,4.49
				c1.23,0.75,1.58,2.41,0.79,3.7l-0.51,0.85c-0.34,0.56-0.91,1.21-0.38,1.54c0,0,0.8-0.2,2.44,0.87c1.64,1.08,1.76,1.71,1.76,1.71
				c0.53,0.33,1.06,0.01,1.4-0.55l2.55-4.17c0.64-1.04,1.11-3.09-0.39-5.31c-1.21-1.79-2.3-2.88-7.91-6.32
				c-5.65-3.46-6.76-3.64-8.85-4.07C87.18,3.65,84.88,4.99,84.25,6.02z"/>
			<path style="opacity:0.65;fill:#BDBDBD;" d="M90.23,7.69c-1.16-0.25-2.37-0.24-3.51,0.07c-0.14,0.04-0.28,0.08-0.42,0.05
				c-0.26-0.05-0.42-0.33-0.41-0.6c0.01-0.26,0.15-0.5,0.31-0.72c1.64-2.18,4.82-1.31,6.95-0.13c0.72,0.4,2.65,1.57,1.53,2.59
				c-0.3,0.28-0.77,0.3-1.16,0.18c-0.39-0.12-0.73-0.37-1.08-0.58C91.76,8.15,91.01,7.86,90.23,7.69z"/>
		</g>
		<g>
			<path style="fill:#0277BD;" d="M107.11,57.86c2.05-3.33,1-7.7-2.33-9.74L90.11,39.1l-40.68,66.13l14.71,9.05
				c3.33,2.05,7.7,1,9.74-2.33L107.11,57.86z"/>
			<path style="fill:#03A9F4;" d="M19.09,86.64l30.66,18.86c3.33,2.05,7.7,1,9.74-2.33l33.26-54.14c2.05-3.33,1-7.7-2.33-9.74
				L59.76,20.44c-3.33-2.05-7.7-1-9.74,2.33L16.76,76.9C14.71,80.24,15.75,84.6,19.09,86.64z"/>
			<path style="fill:#212121;" d="M58.96,111.09c1.44-0.03,2.78-0.41,4.21-0.85c1.81-0.56,3.33-1.46,4.35-3.11
				c0,0,32.18-52.4,32.18-52.4c1.18-1.92,1.18-4.23,0.46-6.31c-0.36-1.05-0.8-2.21-1.64-3.33c-0.7-0.93-1.95-2.04-2.01-2.07
				c0.78,0,1.94,0.72,3.54,2.22c2.93,2.74,3.38,7.17,1.33,10.51c0,0.01-32.18,52.4-32.18,52.4c-1.16,1.9-3.03,3.3-5.17,3.9
				c-0.97,0.27-2.17,0.38-3.2,0.27C59.29,112.16,58.96,111.09,58.96,111.09z"/>
			<g>
				
					<ellipse transform="matrix(0.9675 -0.2528 0.2528 0.9675 -13.3585 13.5357)" style="fill:#784D30;" cx="45.99" cy="58.75" rx="4.94" ry="7.98"/>
				<path style="fill:#FFE0B2;" d="M44.39,65.92c-1.57-1.18-2.92-3.27-3.59-5.82c-0.56-2.14-0.57-4.29-0.02-6.05
					c0.57-1.84,1.66-3.06,3.08-3.43c2.86-0.75,6.14,2.29,7.31,6.77c0.56,2.14,0.57,4.29,0.02,6.05c-0.57,1.84-1.66,3.06-3.08,3.43
					C46.88,67.19,45.58,66.82,44.39,65.92z M47.1,52.22c-0.97-0.73-2.03-1.05-3.02-0.79c-1.13,0.3-2.02,1.31-2.49,2.86
					c-0.5,1.62-0.49,3.61,0.03,5.59c1.05,4.03,3.87,6.8,6.28,6.17c1.13-0.3,2.02-1.31,2.49-2.86c0.5-1.62,0.49-3.61-0.03-5.59
					C49.74,55.22,48.5,53.28,47.1,52.22z"/>
			</g>
			<polygon style="fill:#7CB342;stroke:#F1F8E9;stroke-width:0.7531;stroke-miterlimit:10;" points="68.78,46.18 69.93,55.34 
				84.91,51.54 80.12,48.03 83.77,42.82 			"/>
			<path style="fill:#FFE36C;" d="M64.59,44.94c2.15-2.05,1.54-6.33-1.99-5.41c-1.04,0.27-2.17,0.85-3.15,0.13
				c-0.23-0.19-0.38-0.51-0.31-0.81c0.13-0.56,0.86-0.98,1.31-1.2c1.37-0.61,2.52-0.67,2.86-2.28c0.42-1.96-2.51-3.91-4.39-3.8
				c-2.57,0.15-2.68,2.06-2.36,4.31c0.19,1.09-0.96,1.89-1.69,0.96c-0.51-0.97-0.08-2.5-0.55-3.51c-0.49-1.72-2.62-1.79-3.97-0.98
				c-1.27,0.76-2.41,2.29-1.97,3.79c0.43,1.46,1.52,1.75,2.7,2.02c0.58,0.13,1.32,0.37,1.63,0.96c0.48,1.34-1.87,0.71-2.58,0.81
				c-0.75,0-1.46,0.08-2.05,0.56c-1.62,1.22-1.38,4.18,0.66,5.15c1.82,1.14,3.53-0.24,4.51-1.93c0.26-0.39,0.57-0.83,1.03-0.88
				c0.86-0.09,0.87,1,0.73,1.56c-0.22,0.91-0.71,1.74-0.93,2.65c-0.72,3.09,3.76,4.25,5.55,1.86c1.09-1.48,0.35-3.13-1.01-4.36
				c-0.34-0.31-0.64-0.92-0.28-1.33c0.72-0.76,2.01,0.51,2.41,0.84C61.95,45.05,63.09,46.1,64.59,44.94z"/>
			<circle style="fill:#FF7555;" cx="56" cy="40.16" r="1.94"/>
			<path style="fill:#424242;" d="M54.92,108.65l-4.49-2.72l4.37-7.14l7.67,4.65c0.66,0.4,0.86,1.26,0.46,1.91
				C62.94,105.36,59.79,111.65,54.92,108.65z"/>
			<path style="fill:#757575;" d="M50.75,96.3c-0.66-0.4-1.51-0.19-1.92,0.46l-1.51,2.47c-1.17,1.91-0.57,4.41,1.32,5.59l1.11,0.68
				c3.02,1.86,7.59,1.9,10.25-2.93c0.15-0.27,0.05-0.61-0.21-0.76L50.75,96.3z"/>
			<path style="fill:#424242;" d="M73.11,110.06c-1.04-0.63-2.01-0.39-2.84,0.73c-2.22,2.99-4.53,3.54-6.12,3.5l0.58,0.35
				c3.53,2.25,7.65,0.79,9.76-3.5c0.05-0.1,0.01-0.22-0.08-0.28L73.11,110.06z"/>
			<path style="fill:#757575;" d="M26.9,81.76c0.66,0.4,0.86,1.26,0.46,1.91l-1.51,2.47c-1.17,1.91-3.65,2.53-5.58,1.39l-1.11-0.67
				c-3.06-1.85-5.14-6.22-2.07-10.64c0.12-0.17,0.36-0.22,0.53-0.11L26.9,81.76z"/>
			<path style="fill:#FFE0B2;" d="M47.95,64.05c0.36-1.04-0.69-1.52-1.04-2.22c0.06-1.05,0.96-2.06,0.25-3.14
				c2.38-1.89,0.33-2.7-1.76-2.8c0.12-0.34,0.59-0.49,0.79-0.84c0.34-0.5,0.31-1.19-0.09-1.65c-0.42-0.65-2.47-0.72-1.92,0.4
				c0.46,0.52,0.79-0.48,1.28-0.23c0.67,0.45-0.26,1.09-0.58,1.44c-0.39,0.37-0.52,0.87-0.33,1.27c0.42,0.89,1.64,0.49,2.39,0.61
				c0.83,0.19,0.14,0.97-0.3,1.18c-0.11,0.07-0.57-0.18-0.72-0.19c-4.27-0.94-2.74,4.52,0.34,1.52c0.91,0.65-0.57,1.67-0.39,2.47
				c0.19,0.99,1.68,1.61,0.95,2.81c-0.03,0.04-0.06,0.09-0.03,0.14C47.19,65.03,47.79,64.44,47.95,64.05z M45.11,59.41
				c-0.28,0.23-0.86,0.23-0.92-0.2c0.09-0.62,1.06-0.61,1.46-0.31C45.49,59.08,45.3,59.26,45.11,59.41z"/>
		</g>
	</g>
</g>
</svg>
